X: 1
T: Ann Droney's
M: 4/4
L: 1/8
R: reel
K: Dmaj
|:dB|Adcd B2dB|(3ABA FD EGFE|D2 FA d2 cd|Beed cABd|
Adcd BcdB|(3ABA FD EGFE|DEFA dedB|AFEF D2:|
|:de|faaf bgaf|gfed Bdde|fdad bafa|bafe dcde|
fdad bgaf|gfed Bcde|fafe dcdB|AFEF D2:|
